briefcase-arrow-left-right-outline.svg

<svg  viewBox="0 0 24 24" fill="currentColor"><path  d="M10 2H14C15.11 2 16 2.9 16 4V6H20C21.11 6 22 6.9 22 8V13.53C21.42 13 20.75 12.6 20 12.34V8H4V19H12.08C12.2 19.72 12.45 20.39 12.8 21H4C2.9 21 2 20.11 2 19V8C2 6.9 2.9 6 4 6H8V4C8 2.9 8.9 2 10 2M14 6V4H10V6H14M19 18.5V17H15V15H19V13.5L22 16L19 18.5M17 19H21V21H17V22.5L14 20L17 17.5V19Z"/></svg>

<svg fill="currentColor" viewBox="0 0 24 24"><path d="M10 2h4a2 2 0 0 1 2 2v2h4a2 2 0 0 1 2 2v5.53a5.7 5.7 0 0 0-2-1.19V8H4v11h8.08c.12.72.37 1.39.72 2H4a2 2 0 0 1-2-2V8c0-1.1.9-2 2-2h4V4c0-1.1.9-2 2-2m4 4V4h-4v2zm5 12.5V17h-4v-2h4v-1.5l3 2.5zm-2 .5h4v2h-4v1.5L14 20l3-2.5z"/></svg>
